img/index/logo.svg

<svg width="78" height="38" viewBox="0 0 78 38" fill="none" xmlns="http://www.w3.org/2000/svg"><g clip-path="url(#clip0_187_290)"><path d="M36.8009 19.4086C34.7282 19.4635 33.6067 19.7586 32.7332 18.723C31.9808 17.8292 33.1311 13.3168 33.2867 12.7556C34.2813 9.16299 36.3483 6.54809 39.2715 4.31211C41.0819 2.92656 43.0106 1.91994 45.066 1.15051C46.6833 0.545957 48.4562 0.0773567 50.1658 0.0600011C54.3632 0.02529 58.575 0.123638 62.7551 0.485212C65.5342 0.725298 68.0019 2.12242 70.3168 3.68731C73.6465 5.93775 75.9873 8.97497 77.2788 12.7758C77.6651 13.9126 77.9159 15.1622 77.9044 16.3569C77.8813 18.8185 77.8554 21.3177 77.4085 23.7214C77.1116 25.3152 76.1084 27.2851 75.3243 28.7603C74.0155 30.9876 72.8767 32.1013 71.2133 33.7703C68.2469 36.7468 64.3205 38.0166 60.1288 38.005C46.0923 37.9674 32.0558 38.0311 18.0192 37.9356C16.376 37.924 14.6463 37.3687 13.1242 36.6918C10.9419 35.7199 8.73363 34.6323 6.87132 33.1657C4.67748 31.4417 2.70274 29.3938 1.48906 26.7529C-0.154156 23.1718 -0.131093 19.371 0.131245 15.6106C0.324395 12.8019 1.61879 10.2188 3.38597 8.06959C4.88504 6.25015 6.64357 4.52327 8.60678 3.24764C10.4028 2.08192 12.5476 1.34721 14.6492 0.765794C19.109 -0.463558 22.5597 0.184383 26.8494 0.0657863C27.0079 0.0600011 27.0627 0.0715715 27.4404 0.0628937C27.4404 1.39638 27.5441 2.84268 27.4173 4.20219C27.3885 4.5117 27.3827 4.99477 26.9733 5.00634C24.35 5.02369 20.9886 5.09601 18.3565 5.01212C15.2633 4.91377 12.5966 6.05924 10.1664 7.77166C5.92286 10.7626 4.25658 15.0234 4.59099 20.1115C4.73225 22.2838 5.37224 24.3607 6.62339 26.1657C8.78552 29.2839 11.6078 31.5661 15.3036 32.6248C15.7505 32.7521 16.2492 32.729 16.7248 32.729C31.4331 32.7347 46.1384 32.7579 60.8467 32.7261C64.7961 32.7174 67.7741 30.655 70.0516 27.6351C71.1816 26.1367 72.4097 24.3925 72.6692 22.6222C73.116 19.5734 73.4129 16.4494 72.1647 13.3341C70.8876 10.1552 68.6015 8.02331 65.8772 6.389C63.9399 5.22617 61.6971 4.48278 59.3188 4.49724C56.3004 4.51749 53.2821 4.48856 50.2638 4.50302C47.2108 4.51459 44.6768 5.87411 42.2754 7.60389C39.4474 9.64027 38.2366 12.4779 37.3371 15.6742C36.9335 17.1061 36.8759 17.7656 36.798 19.4115L36.8009 19.4086Z" fill="#B04B19"></path><path d="M27.4821 7.78394C27.4821 9.32858 27.4821 10.6216 27.4821 11.9146C27.4821 12.8344 27.0179 13.1294 26.1185 13.1179C23.3885 13.0861 20.6526 13.2683 17.9312 13.115C15.0917 12.953 12.3068 17.0055 13.3331 20.0803C14.0452 22.2151 15.7316 23.3982 17.4902 24.5118C17.8159 24.7172 21.307 24.6767 21.7279 24.6767C35.1389 24.6854 45.569 24.6882 58.9799 24.6825C61.3179 24.6825 63.8981 22.0647 63.9817 19.7217C64.0624 17.4857 63.8318 15.4088 61.612 14.1939C60.9057 13.8092 60.1648 13.2509 59.421 13.2191C56.5065 13.0976 53.5804 13.0976 50.663 13.1613C48.1117 13.2162 45.5776 15.9353 45.5459 18.5155C45.5344 19.4758 45.471 20.4448 45.5603 21.3965C45.7016 22.9209 44.6292 23.4791 43.5481 23.7771C42.4123 24.0866 41.2995 23.8031 40.6221 22.5998C38.9154 19.5713 39.8552 16.7597 41.2793 13.9857C42.6775 11.2637 43.8105 10.0633 46.4569 8.92072C47.2151 8.59386 49.5012 8.33064 50.3459 8.3451C54.0561 8.40584 57.8009 8.26989 61.4563 8.7761C62.964 8.98436 64.6447 10.1125 65.8007 11.31C67.4151 12.71 68.1012 14.7493 68.5913 16.7278C69.2976 19.577 69.0497 23.051 67.4151 25.5213C66.7867 26.4701 66.3687 26.9098 65.4692 27.6271C63.5089 29.192 61.3468 29.8776 59.0751 29.8891C45.6151 29.9586 32.1552 29.8949 18.6952 29.9614C16.3543 29.973 14.5843 28.7784 12.9757 27.4999C8.42365 23.8841 7.81249 19.927 9.21355 14.7927C9.99192 11.9406 12.0935 9.77115 14.887 8.56494C16.4639 7.67691 18.2339 7.79551 19.8627 7.78972C22.3449 7.78104 24.827 7.78972 27.4821 7.78972V7.78394Z" fill="#B04B19"></path></g><defs><clipPath id="clip0_187_290"><rect width="77.9" height="38" fill="white"></rect></clipPath></defs></svg>

<svg width="78" height="38" fill="none" xmlns="http://www.w3.org/2000/svg"><g clip-path="url(#a)" fill="#B04B19"><path d="M36.8 19.409c-2.072.055-3.193.35-4.067-.686-.752-.894.398-5.406.554-5.967.994-3.593 3.061-6.208 5.985-8.444 1.81-1.385 3.739-2.392 5.794-3.161 1.617-.605 3.39-1.074 5.1-1.091 4.197-.035 8.409.064 12.59.425 2.778.24 5.246 1.637 7.56 3.202 3.33 2.25 5.671 5.288 6.963 9.089.386 1.137.637 2.386.625 3.58-.023 2.462-.049 4.962-.495 7.365-.297 1.594-1.3 3.564-2.085 5.04-1.308 2.227-2.447 3.34-4.11 5.01-2.967 2.976-6.894 4.246-11.085 4.234-14.037-.038-28.073.026-42.11-.07-1.643-.011-3.373-.566-4.895-1.243-2.182-.972-4.39-2.06-6.253-3.526-2.194-1.724-4.168-3.772-5.382-6.413C-.154 23.172-.13 19.37.131 15.61.324 12.8 1.62 10.219 3.386 8.07c1.499-1.82 3.258-3.547 5.22-4.822 1.797-1.166 3.942-1.9 6.043-2.482 4.46-1.23 7.91-.582 12.2-.7.159-.006.214.006.591-.003 0 1.333.104 2.78-.023 4.14-.029.309-.034.792-.444.803-2.623.018-5.984.09-8.616.006-3.094-.098-5.76 1.047-8.19 2.76-4.244 2.99-5.91 7.251-5.576 12.34.141 2.172.781 4.249 2.032 6.054 2.163 3.118 4.985 5.4 8.68 6.459.447.127.946.104 1.422.104 14.708.006 29.413.029 44.122-.003 3.95-.009 6.927-2.071 9.205-5.09 1.13-1.5 2.358-3.244 2.617-5.014.447-3.049.744-6.173-.504-9.288-1.277-3.179-3.564-5.31-6.288-6.945-1.937-1.163-4.18-1.906-6.558-1.892-3.019.02-6.037-.008-9.055.006-3.053.012-5.587 1.371-7.989 3.1-2.828 2.037-4.038 4.875-4.938 8.071-.404 1.432-.461 2.092-.539 3.738l.003-.003Z"/><path d="M27.482 7.784v4.13c0 .92-.464 1.215-1.363 1.204-2.73-.032-5.466.15-8.188-.003-2.84-.162-5.624 3.89-4.598 6.965.712 2.135 2.399 3.318 4.157 4.432.326.205 3.817.165 4.238.165 13.41.008 23.841.011 37.252.006 2.338 0 4.918-2.618 5.002-4.961.08-2.236-.15-4.313-2.37-5.528-.706-.385-1.447-.943-2.191-.975-2.914-.121-5.84-.121-8.758-.058-2.551.055-5.085 2.774-5.117 5.354-.012.96-.075 1.93.014 2.881.142 1.525-.93 2.083-2.012 2.381-1.136.31-2.248.026-2.926-1.177-1.707-3.029-.767-5.84.657-8.614 1.398-2.722 2.531-3.923 5.178-5.065.758-.327 3.044-.59 3.889-.576 3.71.06 7.455-.075 11.11.431 1.508.208 3.189 1.337 4.345 2.534 1.614 1.4 2.3 3.44 2.79 5.418.707 2.849.459 6.323-1.176 8.793-.628.95-1.046 1.389-1.946 2.106-1.96 1.565-4.122 2.25-6.394 2.262-13.46.07-26.92.006-40.38.072-2.34.012-4.11-1.183-5.72-2.461-4.551-3.616-5.163-7.573-3.761-12.707.778-2.852 2.88-5.022 5.673-6.228 1.577-.888 3.347-.77 4.976-.775 2.482-.009 4.964 0 7.62 0v-.006Z"/></g><defs><clipPath id="a"><path fill="#fff" d="M0 0h77.9v38H0z"/></clipPath></defs></svg>
